svg/meter_gas.svg

<svg xmlns="http://www.w3.org/2000/svg" viewBox="0 0 24 24"><path d="M16 4h-1V2h-2v2h-2V2H9v2H8C5.79 4 4 5.79 4 8v10c0 2.21 1.79 4 4 4h8c2.21 0 4-1.79 4-4V8c0-2.21-1.79-4-4-4m-4 14c-1.38 0-2.5-1.1-2.5-2.46 0-1.09.43-1.39 2.5-3.79 2.05 2.38 2.5 2.7 2.5 3.79C14.5 16.9 13.38 18 12 18m4-8H8V8h8z"/></svg>

<svg xmlns="http://www.w3.org/2000/svg" id="mdi-meter-gas" viewBox="0 0 24 24"><path d="M16 4H15V2H13V4H11V2H9V4H8C5.79 4 4 5.79 4 8V18C4 20.21 5.79 22 8 22H16C18.21 22 20 20.21 20 18V8C20 5.79 18.21 4 16 4M12 18C10.62 18 9.5 16.9 9.5 15.54C9.5 14.45 9.93 14.15 12 11.75C14.05 14.13 14.5 14.45 14.5 15.54C14.5 16.9 13.38 18 12 18M16 10H8V8H16V10Z" /></svg>
